X:1
T:3 Lieder, Op.36
T:Seid mir gegrüsst
T:3 Lieder, Op.36
T:Josephine Lang
T:3. Seid mir gegrüsst
T:Helene Herzogin von Orleans
T:Creative Commons copyright waiver (CC0 1.0 Universal)
T:Creative Commons copyright waiver (CC0 1.0 Universal)
T:Creative Commons copyright waiver (CC0 1.0 Universal)
T:Creative Commons copyright waiver (CC0 1.0 Universal)
C:Josephine Lang
Z:Helene Herzogin von Orleans
Z:Creative Commons copyright waiver (CC0 1.0 Universal)
%%score 1 { ( 2 3 ) | 4 }
L:1/8
Q:1/4=50
M:2/4
K:Eb
V:1 treble nm="Stimme\nVoice"
V:2 bass nm="Piano"
V:3 bass 
V:4 bass 
V:1
"^Largo maestoso" z4 | z4 | z4 | z4 | z4 | E2 E E | G3 G | F2 E D | (D>E) E2 | E2 A3/2 A/ | %10
w: |||||Seid mir ge-|grüsst, ihr|la- chen- den|Hü- * gel,|herr- lich ge-|
 A2 z G | G2 F E | B,3 z | E3 E | G2 z G | (F2 E) D | (D>E) E2 | (EA) A A | A3 G | F3 E | B,2 z2 | %21
w: krönt mit|grü- nen- dem|Laub!|mild um-|weht von|Ze- * phir's|Flü- * gel,|wer- * det ihr|kei- nes|Stur- mes|Raub!|
 F2 F3/2 F/ | B3 F | F2 F F | A3 z | A2 A3/2 A/ | G2 D D | A2 B3/2 A/ | G3 z | E2 G3/2 c/ | %30
w: Sei mir ge-|grüsst, o|ru- hi- ges|Meer,|bran- den- de|Wo- gen am|ein- sa- men|Strand!|Spie- gel dem|
 =B2 B B | (=A3- (3=A/=B/) c/ | (c2 =B) z | E2 G3/2 c/ | =B3 c | d3 =A | =B4 | G2 F3/2 c/ | %38
w: nächt- li- chen|Ster- * * nen-|heer! _|Sei mir ge-|grüsst, mein|Ju- gend-|land!|sei mir ge-|
 (c2 =B) G | (G2 F) c | (c2 =B2) | G2 F3/2 c/ | _B3 B | B3 B, | %44
w: grüsst, _ mein|Ju- * gend-|land! _|sei mir ge-|grüsst, mein|Ju- gend-|
 B,4({!^!!tenuto!=B,!^!!tenuto!C!^!!tenuto!D)} | E3 E | G2 G G | F2 E D | (D>E) E E | (EA) A A | %50
w: land!|Teu- re|Bil- der ver-|flos- se- ner|Freu- * den, ver-|schwun- * den sind|
 A3 G | F3 E | B,3 z | E2 E3/2 E/ | G2 z G | F2 E D | (D>E) E2 | (EA) A A | G2 F C | E2 D B | %60
w: sie nach|kur- zem|Spiel!|Mö- ge der|Schmerz vom|ir- di- schen|Schei- * den|wen- * den das|Au- ge zum|se- li- gen|
 =A4- | A2 z2 | _A2 G F | E2 E z/ E/ | E2 C (D | E4) | z4 | z4 | z4 | z4 | z4 | z4 |] %72
w: Ziel,|_|wen- den das|Au- ge zum|se- li- gen|Ziel!|||||||
V:2
 B,3 B, | z4 | z4 |[K:treble] z4 | z4 | z4 | z4 | z4 | z4 | z4 | z4 | z4 | z4 | z4 | z4 | z4 | z4 | %17
 z4 | z4 | z4 | z4 | z4 | z4 | z4 | z4 | z4 | z4 | z4 | z4 | z4 | z4 | z4 | z4 | z4 | z4 | z4 | %36
 z4 | z4 | z4 | z4 | z4 | z4 | z4 | z4 | z4 | z4 | z4 | z4 | z4 | z4 | z4 | z4 | z4 | z4 | z4 | %55
 z4 | z4 | z4 | z4 | z4 | z4 | z4 | z4 | z4 | z4 | z4 | z4 | z4 | z4 | z4 | z4 | z4 |] %72
V:3
 A,/F,/A,/F,/ A,/F,/A,/F,/ | x4 | x4 |[K:treble] x4 | x4 | x4 | x4 | x4 | x4 | x4 | x4 | x4 | x4 | %13
 x4 | x4 | x4 | x4 | x4 | x4 | x4 | x4 | x4 | x4 | x4 | x4 | x4 | x4 | x4 | x4 | x4 | x4 | x4 | %32
 x4 | x4 | x4 | x4 | x4 | x4 | x4 | x4 | x4 | x4 | x4 | x4 | x4 | x4 | x4 | x4 | x4 | x4 | x4 | %51
 x4 | x4 | x4 | x4 | x4 | x4 | x4 | x4 | x4 | x4 | x4 | x4 | x4 | x4 | x4 | x4 | x4 | x4 | x4 | %70
 x4 | x4 |] %72
V:4
 [E,,B,,D,]2[K:treble] [Bb]2 |[K:bass] z4 | z4 | z4 | z4 | z4 | z4 | z4 | z4 | z4 | z4 | z4 | z4 | %13
 z4 | z4 | z4 | z4 | z4 | z4 | z4 | z4 | z4 | z4 | z4 | z4 | z4 | z4 | z4 | z4 | z4 | z4 | z4 | %32
 z4 | z4 | z4 | z4 | z4 | z4 | z4 | z4 | z4 | z4 | z4 | z4 | z4 | z4 | z4 | z4 | z4 | z4 | z4 | %51
 z4 | z4 | z4 | z4 | z4 | z4 | z4 | z4 | z4 | z4 | z4 | z4 | z4 | z4 | z4 | z4 | z4 | z4 | z4 | %70
 z4 | z4 |] %72

